X:21189 
T:SWINGING AROUND THE CIRCLE (hornpipe) 
B:DMI.0947
Z:Nordberg/Black
R:hornpipe
%Q:1/4=150
M:C|
L:1/8
K:D
FG|ABAG FDFA|BABc dcdB|AFdB AFDF|EDEF E2FG|
ABAG FDFA|BABc dcdB|AdcB AGFE|D2DE D2:|
FG|AddB Add2|Adfd edcd|efgf edcf|edcB AGFG|
AddB Add2|Adfd edcd|efgf edce|d2dcd2:|

%%%

